svgs/duotone/cloud-bolt-moon.svg

<svg xmlns="http://www.w3.org/2000/svg" viewBox="0 0 576 512"><!--! Font Awesome Pro 6.0.0-alpha3 by @fontawesome - https://fontawesome.com License - https://fontawesome.com/license (Commercial License) --><defs><style>.fa-secondary{opacity:.4}</style></defs><path class="fa-primary" d="M415.1 304C415.1 348.3 380.2 384 335.1 384h-16.32c.0137-5.684-.6621-11.38-2.729-16.88c-6.982-18.6-25.04-31.11-44.92-31.11H264.8l19.33-45.09c8.871-20.71 2.336-44.44-15.89-57.71C259.9 227.2 250.2 224 239.1 224C228.3 224 217.1 228.2 208.3 235.9l-127.9 111.9c-10.14 8.846-15.44 21.53-15.9 34.56C27.7 375.2 0 342.9 0 304c0-38.75 27.63-71.13 64.27-78.38c0-.5-.25-1.125-.25-1.625c0-53 43.01-96 96.03-96c32.13 0 60.27 15.88 77.77 40C248.2 163 259.8 160 272.1 160c39.26 0 71.65 28.25 78.52 65.5C387.9 232.3 416.1 264.8 415.1 304z"/><path class="fa-secondary" d="M272 368H216.3l38.45-89.7c2.938-6.859 .7187-14.84-5.312-19.23c-6.096-4.422-14.35-4.031-19.94 .8906l-128 111.1c-5.033 4.391-6.783 11.44-4.439 17.67c2.346 6.25 8.314 10.38 14.97 10.38H167.7l-38.45 89.7c-2.938 6.859-.7187 14.84 5.312 19.23C137.4 510.1 140.7 512 143.1 512c3.781 0 7.531-1.328 10.53-3.953l128-111.1c5.033-4.391 6.783-11.44 4.439-17.67C284.6 372.1 278.7 368 272 368zM567.9 223.8C497.6 237.1 432.9 183.5 432.9 113c0-40.63 21.88-78 57.5-98.13c5.502-3.125 4.125-11.38-2.125-12.5C479.7 .75 470.8 0 461.8 0c-77.88 0-141 61.25-144.4 137.9c26.75 11.88 48.26 33.88 58.88 61.75c37.13 14.25 64.01 47.38 70.26 86.75c5.125 .5 10 1.5 15.26 1.5c44.63 0 85.5-20.12 112.5-53.25C578.6 229.8 574.2 222.6 567.9 223.8z"/></svg>

<svg xmlns="http://www.w3.org/2000/svg" viewBox="0 0 576 512"><!-- Font Awesome Pro 6.0.0-alpha2 by @fontawesome - https://fontawesome.com License - https://fontawesome.com/license (Commercial License) --><defs><style>.fa-secondary{opacity:.4}</style></defs><path d="M272.005 368.006H216.278L254.724 278.309C257.661 271.449 255.442 263.465 249.411 259.074C243.315 254.652 235.065 255.043 229.472 259.965L101.466 371.959C96.433 376.35 94.683 383.396 97.026 389.631C99.372 395.881 105.341 400.006 111.997 400.006H167.724L129.278 489.703C126.341 496.563 128.559 504.547 134.591 508.938C137.405 510.984 140.718 512 143.999 512C147.78 512 151.53 510.672 154.53 508.047L282.536 396.053C287.569 391.662 289.319 384.615 286.975 378.381C284.63 372.131 278.661 368.006 272.005 368.006ZM567.934 223.75C497.554 237.125 432.921 183.5 432.921 113C432.921 72.375 454.798 35 490.427 14.875C495.929 11.75 494.552 3.5 488.302 2.375C479.677 0.75 470.8 0 461.8 0C383.917 0 320.784 61.25 317.409 137.875C344.161 149.75 365.665 171.75 376.29 199.625C413.419 213.875 440.298 247 446.548 286.375C451.673 286.875 456.548 287.875 461.8 287.875C506.429 287.875 547.308 267.75 574.311 234.625C578.561 229.75 574.186 222.625 567.934 223.75Z" class="fa-secondary"/><path d="M416 304C416 348.25 380.238 384 335.977 384H319.656C319.67 378.316 318.994 372.617 316.928 367.119C309.945 348.516 291.889 336.006 272.004 336.006H264.809L284.135 290.914C293.006 270.199 286.471 246.473 268.244 233.203C259.926 227.172 250.168 224 239.977 224C228.322 224 217.084 228.24 208.332 235.939L80.395 347.875C70.254 356.721 64.959 369.406 64.498 382.439C27.699 375.225 0 342.932 0 304C0 265.25 27.633 232.875 64.27 225.625C64.27 225.125 64.02 224.5 64.02 224C64.02 171 107.031 128 160.049 128C192.182 128 220.316 143.875 237.82 168C248.199 163 259.828 160 272.082 160C311.344 160 343.729 188.25 350.605 225.5C387.865 232.25 416.125 264.75 416 304Z" class="fa-primary"/></svg>
